public/svg/mysql.svg

<svg width="101" height="100" viewBox="0 0 101 100" fill="none" xmlns="http://www.w3.org/2000/svg">
<path d="M92.3193 77.1365C86.8784 76.9988 82.6616 77.5512 79.1249 79.0698C78.1046 79.4837 76.4721 79.4841 76.336 80.7959C76.8802 81.3483 76.9482 82.2459 77.4244 83.005C78.2414 84.3855 79.6687 86.2498 80.961 87.2168C82.3891 88.3211 83.8179 89.4255 85.3136 90.3921C87.9664 92.0492 90.9593 93.0155 93.5436 94.6726C95.0405 95.6384 96.5358 96.882 98.0322 97.9173C98.7804 98.4689 99.2562 99.3673 100.209 99.7121V99.5054C99.7323 98.8836 99.5963 97.9864 99.1205 97.2959C98.4411 96.6055 97.7601 95.984 97.0799 95.2936C95.1077 92.6016 92.6594 90.254 90.007 88.3211C87.8307 86.8021 83.0693 84.7311 82.1854 82.1764C82.1854 82.1764 82.117 82.1078 82.0494 82.0387C83.5454 81.9007 85.3136 81.3483 86.7424 80.934C89.0547 80.3122 91.1629 80.4507 93.5436 79.8293C94.6316 79.5531 95.7199 79.2079 96.8078 78.8626V78.2416C95.5843 76.9988 94.7 75.3421 93.4076 74.1683C89.939 71.1299 86.1298 68.1617 82.1854 65.6765C80.0768 64.2955 77.356 63.3979 75.1117 62.2246C74.2962 61.8099 72.9354 61.6031 72.4597 60.9127C71.2349 59.3941 70.5547 57.3921 69.6708 55.597C67.699 51.7994 65.7941 47.5884 64.0936 43.5845C62.87 40.8918 62.1217 38.199 60.6253 35.7141C53.62 23.9775 46.0025 16.8666 34.3045 9.89333C31.7878 8.44376 28.7953 7.82235 25.5987 7.06324C23.899 6.9938 22.1981 6.8561 20.498 6.78666C19.4096 6.30334 18.3213 4.99186 17.369 4.37045C13.493 1.8848 3.49442 -3.49959 0.637951 3.61134C-1.1986 8.09853 3.35877 12.5167 4.92245 14.7956C6.07958 16.3832 7.57525 18.178 8.39149 19.9732C8.86764 21.1462 9.00329 22.3898 9.47943 23.6323C10.5681 26.6691 11.5877 30.0527 13.0165 32.8836C13.7647 34.3332 14.5806 35.8518 15.5329 37.1637C16.077 37.9228 17.0289 38.2684 17.2334 39.5108C16.2815 40.8918 16.2131 42.9631 15.6685 44.6889C13.2202 52.4903 14.1728 62.1555 17.6411 67.8855C18.729 69.6109 21.3138 73.4092 24.7825 71.9588C27.8434 70.7164 27.1632 66.7812 28.0467 63.3293C28.2515 62.5 28.1155 61.9484 28.5232 61.396V61.5345C29.4755 63.467 30.4274 65.3316 31.3116 67.2645C33.4203 70.647 37.0926 74.1683 40.1531 76.5159C41.786 77.7579 43.078 79.8983 45.1186 80.6578V80.4503H44.9822C44.574 79.8289 43.9619 79.5531 43.4181 79.0694C42.1941 77.8273 40.8333 76.3083 39.8814 74.9274C37.0253 71.0609 34.5082 66.7808 32.2639 62.3623C31.176 60.2226 30.2233 57.8751 29.3394 55.735C28.9309 54.9057 28.9309 53.6637 28.2511 53.2498C27.2308 54.7684 25.7347 56.0803 24.9865 57.9441C23.6949 60.9127 23.5585 64.5717 23.0823 68.3685C22.8103 68.4383 22.9459 68.3685 22.8099 68.5073C20.634 67.9542 19.8858 65.6765 19.0691 63.7432C17.0285 58.8417 16.6884 50.9713 18.4573 45.3103C18.9335 43.8603 20.9741 39.3041 20.1579 37.9232C19.7497 36.6113 18.3889 35.8518 17.6411 34.8165C16.7572 33.5046 15.8045 31.8483 15.1928 30.398C13.5603 26.5318 12.744 22.2514 10.9759 18.3852C10.1596 16.59 8.73199 14.7265 7.57525 13.0694C6.28325 11.2056 4.85482 9.89333 3.83452 7.68425C3.49481 6.92515 3.01827 5.68232 3.56244 4.85377C3.69848 4.3014 3.97017 4.09466 4.51472 3.95657C5.39899 3.19667 7.91574 4.16331 8.79923 4.57759C11.316 5.61248 13.4242 6.57992 15.5329 8.02948C16.4847 8.71994 17.5051 10.0318 18.729 10.377H20.1575C22.3341 10.86 24.7821 10.5151 26.8227 11.1362C30.4278 12.3095 33.692 14.0357 36.6168 15.8999C45.5267 21.6299 52.8714 29.7766 57.8368 39.5108C58.6531 41.0981 58.9928 42.5489 59.741 44.2052C61.1698 47.5884 62.938 51.0403 64.3656 54.3541C65.7941 57.5985 67.1541 60.9127 69.1947 63.6055C70.215 65.0547 74.2954 65.8146 76.132 66.5741C77.4924 67.1951 79.601 67.7478 80.825 68.5069C83.1373 69.9561 85.4496 71.614 87.6263 73.2013C88.7146 74.0298 92.1148 75.756 92.3193 77.1365Z" fill="#00546B"/>
<path d="M22.9455 17.142C21.7896 17.142 20.9737 17.2809 20.1575 17.4876V17.6257H20.2935C20.8381 18.7304 21.7896 19.4899 22.4694 20.4562C23.0139 21.5605 23.4897 22.6656 24.0342 23.7704C24.1019 23.7009 24.1699 23.6323 24.1699 23.6323C25.1226 22.9414 25.5983 21.8371 25.5983 20.18C25.1902 19.6971 25.1222 19.2137 24.7821 18.7304C24.3743 18.0396 23.4897 17.6947 22.9455 17.142Z" fill="#00546B"/>
</svg>

<svg width="101" height="100" viewBox="0 0 101 100" fill="none" xmlns="http://www.w3.org/2000/svg"><path d="M92.32 77.136c-5.442-.137-9.658.415-13.195 1.934-1.02.414-2.653.414-2.789 1.726.544.552.612 1.45 1.088 2.209.817 1.38 2.245 3.245 3.537 4.212 1.428 1.104 2.857 2.209 4.353 3.175 2.652 1.657 5.645 2.624 8.23 4.28 1.496.966 2.992 2.21 4.488 3.245.748.552 1.224 1.45 2.177 1.795v-.207c-.477-.621-.613-1.519-1.088-2.21-.68-.69-1.36-1.311-2.041-2.001-1.972-2.692-4.42-5.04-7.073-6.973-2.176-1.519-6.938-3.59-7.822-6.145l-.136-.137c1.496-.138 3.265-.69 4.693-1.105 2.313-.622 4.42-.483 6.802-1.105 1.088-.276 2.176-.621 3.264-.966v-.621c-1.224-1.243-2.108-2.9-3.4-4.074-3.469-3.038-7.278-6.006-11.223-8.492-2.108-1.38-4.829-2.278-7.073-3.451-.816-.415-2.177-.622-2.652-1.312-1.225-1.519-1.905-3.52-2.79-5.316-1.971-3.798-3.876-8.009-5.576-12.013-1.224-2.692-1.972-5.385-3.469-7.87-7.005-11.736-14.623-18.847-26.32-25.82-2.517-1.45-5.51-2.072-8.706-2.83-1.7-.07-3.4-.208-5.101-.277-1.088-.484-2.177-1.795-3.129-2.417C13.493 1.885 3.494-3.5.638 3.611c-1.837 4.488 2.72 8.906 4.284 11.185 1.158 1.587 2.653 3.382 3.47 5.177.476 1.173.611 2.417 1.087 3.66 1.09 3.036 2.109 6.42 3.538 9.25.748 1.45 1.564 2.969 2.516 4.28.544.76 1.496 1.105 1.7 2.348-.951 1.38-1.02 3.452-1.565 5.178-2.448 7.801-1.495 17.467 1.973 23.196 1.088 1.726 3.673 5.524 7.142 4.074 3.06-1.243 2.38-5.178 3.264-8.63.204-.829.069-1.38.476-1.933v.139c.953 1.932 1.904 3.797 2.789 5.73 2.108 3.382 5.78 6.903 8.841 9.25 1.633 1.243 2.925 3.383 4.966 4.143v-.208h-.137c-.408-.621-1.02-.897-1.564-1.38-1.224-1.243-2.585-2.762-3.537-4.143-2.856-3.866-5.373-8.146-7.617-12.565-1.088-2.14-2.04-4.487-2.925-6.627-.408-.83-.408-2.071-1.088-2.485-1.02 1.518-2.516 2.83-3.265 4.694-1.291 2.969-1.428 6.628-1.904 10.424-.272.07-.136 0-.272.14-2.176-.554-2.924-2.831-3.74-4.765-2.041-4.901-2.382-12.772-.613-18.433.476-1.45 2.517-6.006 1.7-7.387-.407-1.312-1.768-2.071-2.516-3.107-.884-1.311-1.836-2.968-2.448-4.418-1.633-3.866-2.449-8.147-4.217-12.013-.816-1.795-2.244-3.659-3.4-5.316-1.293-1.863-2.721-3.176-3.741-5.385-.34-.759-.817-2.002-.273-2.83.136-.553.408-.76.953-.897.884-.76 3.4.206 4.284.62 2.517 1.035 4.625 2.003 6.734 3.452.952.69 1.972 2.003 3.196 2.348h1.428c2.177.483 4.625.138 6.666.76 3.605 1.172 6.869 2.899 9.794 4.763 8.91 5.73 16.254 13.877 21.22 23.61.816 1.588 1.156 3.039 1.904 4.695 1.429 3.383 3.197 6.835 4.625 10.15 1.428 3.244 2.788 6.558 4.829 9.25 1.02 1.45 5.1 2.21 6.937 2.97 1.36.62 3.469 1.173 4.693 1.932 2.312 1.45 4.625 3.107 6.801 4.694 1.089.829 4.489 2.555 4.693 3.936z" fill="#00546B"/><path d="M22.945 17.142c-1.155 0-1.971.139-2.788.346v.138h.137c.544 1.104 1.496 1.864 2.175 2.83.545 1.105 1.02 2.21 1.565 3.314l.136-.138c.953-.69 1.428-1.795 1.428-3.452-.408-.483-.476-.966-.816-1.45-.408-.69-1.292-1.035-1.837-1.588z" fill="#00546B"/></svg>
